svg/OSM-icons/railway #f8ddf7 °373737 °ffffff !label=enrailway,deEisenbahn/27002;railway=halt;!name=;!bench=;feature_group=public_transport;!label=enhalt,deHaltepunkt.svg

<svg xmlns="http://www.w3.org/2000/svg" viewBox="0 0 580 580" enable-background="new 0 0 580 580"><path fill="#111" stroke="#eee" stroke-width="3.408" d="m66.28 1.768c-41.34 0-64.57 21.371-64.57 65.04v450.12c0 40.844 20.896 62.23 62.19 62.23h452.02c41.31 0 62.23-20.314 62.23-62.23v-450.12c0-42.603-20.923-65.04-63.52-65.04-.003 0-448.5-.143-448.35 0z"/><g fill="#fff"><path d="m275.41 68.01h-12v35.749h-130.9v-35.749h-12v35.749h-44.04v5h44.04v47.5h-44.04v5h44.04v47.5h-44.04v5h44.04v47.5h-44.04v5h44.04v47.5h-44.04v5h44.04v47.5h-44.04v5h44.04v47.5h-44.04v5h44.04v47.5h-44.04v5h44.04v35.748h12v-35.746h130.9v35.748h12v-35.748h44.04v-5h-44.04v-47.5h44.04v-5h-44.04v-47.5h44.04v-5h-44.04v-47.5h44.04v-5h-44.04v-47.5h44.04v-5h-44.04v-47.5h44.04v-5h-44.04v-47.5h44.04v-5h-44.04v-47.5h44.04v-5h-44.04v-35.749m-12 403.23h-130.9v-47.5h130.9v47.5m0-52.5h-130.9v-47.5h130.9v47.5m0-52.5h-130.9v-47.5h130.9v47.5m0-52.5h-130.9v-47.5h130.9v47.5m0-52.5h-130.9v-47.5h130.9v47.5m0-52.5h-130.9v-47.5h130.9v47.5m0-52.5h-130.9v-47.5h130.9v47.5"/><path d="m389.54 106.26h113.99v209.99h-113.99z"/></g></svg>

<?xml version="1.0" encoding="utf-8"?>
<!-- Generator: Adobe Illustrator 15.0.0, SVG Export Plug-In . SVG Version: 6.00 Build 0)  -->
<!DOCTYPE svg PUBLIC "-//W3C//DTD SVG 1.1//EN" "http://www.w3.org/Graphics/SVG/1.1/DTD/svg11.dtd">
<svg version="1.1" id="Layer_1" xmlns="http://www.w3.org/2000/svg" xmlns:xlink="http://www.w3.org/1999/xlink" x="0px" y="0px"
	 width="580px" height="580px" viewBox="0 0 580 580" enable-background="new 0 0 580 580" xml:space="preserve">
<g id="Layer_2_1_">
	<g id="Layer_2">
		<g id="g1327">
			<path id="path1329" fill="#111111" stroke="#EEEEEE" stroke-width="3.408" d="M66.275,1.768
				c-41.335,0-64.571,21.371-64.571,65.036v450.123c0,40.844,20.896,62.229,62.192,62.229h452.024
				c41.307,0,62.229-20.314,62.229-62.229V66.804c0-42.603-20.923-65.036-63.521-65.036C514.625,1.768,66.133,1.625,66.275,1.768z"
				/>
		</g>
	</g>
</g>
<g id="Layer_1_1_">
	<g>
		<path fill="#FFFFFF" d="M275.412,68.011h-12v35.749H132.508V68.011h-12v35.749H76.466v5h44.042v47.496H76.466v5h44.042v47.497
			H76.466v5h44.042v47.496H76.466v5h44.042v47.497H76.466v5h44.042v47.498H76.466v5h44.042v47.496H76.466v5h44.042v47.498H76.466v5
			h44.042v35.748h12V476.24h130.904v35.748h12V476.24h44.042v-5h-44.042v-47.498h44.042v-5h-44.042v-47.496h44.042v-5h-44.042
			v-47.498h44.042v-5h-44.042v-47.497h44.042v-5h-44.042v-47.496h44.042v-5h-44.042v-47.497h44.042v-5h-44.042V108.76h44.042v-5
			h-44.042V68.011z M263.412,471.24H132.508v-47.498h130.904V471.24z M263.412,418.742H132.508v-47.496h130.904V418.742z
			 M263.412,366.246H132.508v-47.498h130.904V366.246z M263.412,313.748H132.508v-47.497h130.904V313.748z M263.412,261.251H132.508
			v-47.496h130.904V261.251z M263.412,208.755H132.508v-47.497h130.904V208.755z M263.412,156.258H132.508V108.76h130.904V156.258z"
			/>
		<rect x="389.54" y="106.26" fill="#FFFFFF" width="113.994" height="209.986"/>
	</g>
</g>
</svg>
